packages/kaspersky-hexa-ui-icons/src/iconsSVGs/24/Twitter.svg

<svg width="24" height="24" viewBox="0 0 24 24" fill="none" xmlns="http://www.w3.org/2000/svg">
<path d="M21 6.65715C20.3375 6.93876 19.6258 7.12826 18.8789 7.21373C19.6417 6.77642 20.2267 6.08401 20.5022 5.25841C19.7892 5.66326 18.9986 5.95745 18.1568 6.11647C17.4832 5.42936 16.5237 5 15.4618 5C13.4223 5 11.7691 6.58294 11.7691 8.53429C11.7691 8.81125 11.8024 9.08159 11.8647 9.33934C8.79578 9.19225 6.07511 7.78489 4.25303 5.64603C3.93596 6.16816 3.75389 6.7751 3.75389 7.42378C3.75389 8.64958 4.40533 9.7316 5.39598 10.365C4.79093 10.3465 4.22118 10.1875 3.72343 9.92309C3.72343 9.93833 3.72343 9.95225 3.72343 9.96748C3.72343 11.6803 4.99585 13.1089 6.6857 13.4329C6.37625 13.5137 6.0495 13.5568 5.71236 13.5568C5.4749 13.5568 5.24299 13.5342 5.018 13.4938C5.48806 14.8979 6.85185 15.9202 8.46764 15.9487C7.20422 16.8969 5.61198 17.4621 3.88127 17.4621C3.58359 17.4621 3.28937 17.4455 3 17.4124C4.63448 18.4149 6.57494 19 8.66078 19C15.4534 19 19.1668 13.6144 19.1668 8.94377C19.1668 8.79071 19.1634 8.63832 19.1565 8.48658C19.8785 7.98765 20.505 7.36547 21 6.65715Z" fill="black"/>
</svg>

<svg xmlns="http://www.w3.org/2000/svg" width="24" height="24" fill="none" viewBox="0 0 24 24"><path fill="#000" d="M21 6.6572c-.6625.2816-1.3742.471-2.1211.5565.7628-.4373 1.3478-1.1297 1.6233-1.9553a7.61 7.61 0 0 1-2.3454.858C17.4832 5.4295 16.5237 5 15.4618 5c-2.0395 0-3.6927 1.583-3.6927 3.5343 0 .277.0333.5473.0956.805-3.069-.147-5.7896-1.5544-7.6117-3.6933-.317.5222-.4991 1.1291-.4991 1.7778 0 1.2258.6514 2.3078 1.642 2.9412a3.81 3.81 0 0 1-1.6725-.442v.0445c0 1.7128 1.2725 3.1414 2.9623 3.4654a3.85 3.85 0 0 1-.9733.1239 3.9 3.9 0 0 1-.6944-.063c.47 1.4041 1.8339 2.4264 3.4496 2.4549-1.2634.9482-2.8556 1.5134-4.5863 1.5134A7.8 7.8 0 0 1 3 17.4124C4.6345 18.4149 6.575 19 8.6608 19c6.7926 0 10.506-5.3856 10.506-10.0562q0-.2296-.0103-.4572c.722-.499 1.3485-1.1211 1.8435-1.8294"/></svg>
